X: 95
T: Missa O gloriosa domina / Credo
N: Derived from Rue1021c-Missa_O_gloriosa_domina-Credo.krn
C: Pierre de la Rue
%%abc-version 2.0
%%abcx-abcm2ps-target-version 5.9.1 (29 Sep 2008)
%%abc-creator hum2abc beta
%%abcx-conversion-date 2019/02/17 08:01:13
%%abc-edited-by Jesse Rodin
%%abc-edited-by Chris Gage 03-26-2013
%%abcx-initial-encoding-date 2013/07/27/
%%humdrum-veritas 500551708
%%humdrum-veritas-data 3034347123
%%linebreak <none>
%%barnumbers 0
L: 1/4
M: 3/1
Q: 1/2=120
%%staves [1 2 3 4]
V: 1 clef=treble
V: 2 clef=treble
V: 3 clef=treble-8
V: 4 clef=bass
K: C
[V:1] d8A4 | 
[V:2] z12 | 
[V:3] d8d4 | 
[V:4] z12 | 
[V:1] z2A2c2d2e4 | 
[V:2] z12 | 
[V:3] A4A2B2c3d | 
[V:4] z12 | 
[V:1] f6edd4 | 
[V:2] z12 | 
[V:3] d8z4 | 
[V:4] z12 | 
[V:1] z4c4c2e2- | 
[V:2] z12 | 
[V:3] f4f2a4a2 | 
[V:4] z12 | 
[V:1] e2d2c2e4dc | 
[V:2] z12 | 
[V:3] g2f2a3ge2f2- | 
[V:4] z12 | 
[V:1] d2c4f4e2 | 
[V:2] z12 | 
[V:3] f2a4gfg4 | 
[V:4] z12 | 
[V:1] f8z4 | 
[V:2] z12 | 
[V:3] f4z2f4f2 | 
[V:4] z12 | 
[V:1] z2d4d2e3d | 
[V:2] z12 | 
[V:3] g3fgfedc4 | 
[V:4] z12 | 
[V:1] edcBA4G2c2- | 
[V:2] z12 | 
[V:3] z2g4f2e2a2- | 
[V:4] z12 | 
[V:1] c2B2A2GFE2D2 | 
[V:2] z12 | 
[V:3] a2g2f2g4f2 | 
[V:4] z12 | 
[V:1] z2G2G2A3GFE | 
[V:2] z12 | 
[V:3] e2dcB2A2z2d2 | 
[V:4] z12 | 
[V:1] F2G3FEDE4 | 
[V:2] z12 | 
[V:3] d2e3d^cB^c4 | 
[V:4] z12 | 
[V:1] D4z4z4 | 
[V:2] z4z2A4A2 | 
[V:3] d8z4 | 
[V:4] z2D4D2D2D2 | 
[V:1] z12 | 
[V:2] A2A2E3FGEG2- | 
[V:3] z12 | 
[V:4] A,3B,CA,C4B,A, | 
[V:1] z12 | 
[V:2] G2FEF4E2E2- | 
[V:3] z12 | 
[V:4] B,4z2A,4G,2 | 
[V:1] z12 | 
[V:2] E2D2E2DCB,4 | 
[V:3] z12 | 
[V:4] A,2F,2E,2A,3^G,G,2 | 
[V:1] z12 | 
[V:2] z2A,2C4A,2E2- | 
[V:3] z12 | 
[V:4] A,4z2A,2C4 | 
[V:1] z12 | 
[V:2] EDCB,A,2E2F3E | 
[V:3] z12 | 
[V:4] A,2E3DCB,A,2F,2 | 
[V:1] z12 | 
[V:2] EDF3ED4^C2 | 
[V:3] z12 | 
[V:4] G,2A,2D,3F,E,4 | 
[V:1] z2d4A2B2A2 | 
[V:2] D12 | 
[V:3] f8f4 | 
[V:4] D,8z2D2- | 
[V:1] f3ed2c2f4 | 
[V:2] z12 | 
[V:3] f6f2f4 | 
[V:4] D2A,2B,2A,2D4 | 
[V:1] e8z2e2 | 
[V:2] z4z2E2E2E2 | 
[V:3] g12 | 
[V:4] C2C2C2C2E3D | 
[V:1] e2e2g3fe2d2 | 
[V:2] G3FEDE2C2G2- | 
[V:3] z12 | 
[V:4] C4G,2C4B,2 | 
[V:1] e2dcd4c4- | 
[V:2] GFE4D2E4 | 
[V:3] z2g2g2g2a3g | 
[V:4] C2B,A,B,4A,4- | 
[V:1] c4z2c2c2c2 | 
[V:2] z2A2A2A2A4 | 
[V:3] f2e2f2ede2e2 | 
[V:4] A,4z2A,2A,2A,2 | 
[V:1] d3BB4z2B2 | 
[V:2] F4z2G2G2G2 | 
[V:3] d4z2d2d2d2 | 
[V:4] B,3G,G,8 | 
[V:1] B2B2c3AA4 | 
[V:2] G3FE4z2E2 | 
[V:3] e3cc4z2c2 | 
[V:4] z2G,2A,3A,F,2E,2 | 
[V:1] z2A2d6d2 | 
[V:2] A6A2A2A2 | 
[V:3] f6f2f2f2 | 
[V:4] D,2D4D2D4 | 
[V:1] c3AB2A2z2d2 | 
[V:2] A3EFEA4G2 | 
[V:3] e3cdcBAB4 | 
[V:4] A,4z4z4 | 
[V:1] c3BBAA4G2 | 
[V:2] A3GF2E2D3C | 
[V:3] A2BcdcBAB4 | 
[V:4] z4z4z2G,2 | 
[V:1] A8z4 | 
[V:2] A,2A3GF2E4 | 
[V:3] f3eedd4^c2 | 
[V:4] F,4C,2D,2A,4 | 
[V:1] z2A3AA2A2B2- | 
[V:2] F4z2D3DD2 | 
[V:3] d12 | 
[V:4] D,8z4 | 
[V:1] B2G4c4c2 | 
[V:2] D2E4C4F2 | 
[V:3] z12 | 
[V:4] z12 | 
[V:1] c2c3ABcd2c2- | 
[V:2] F3DEFG2F3E | 
[V:3] z12 | 
[V:4] z12 | 
[V:1] cBcdefe4dc | 
[V:2] FGA_BA2GFE2A2 | 
[V:3] z12 | 
[V:4] z12 | 
[V:1] B2e2d2d2f2f2 | 
[V:2] G2G2B2B2AGA2- | 
[V:3] z12 | 
[V:4] z12 | 
[V:1] ede4d4^c2 | 
[V:2] A2GFGFEDE4 | 
[V:3] z12 | 
[V:4] z12 | 
[V:1] d8z4 | 
[V:2] D8z4 | 
[V:3] z4f4f2a2- | 
[V:4] D4D2F4F,2- | 
[V:1] z12 | 
[V:2] z12 | 
[V:3] a2gfe2f2c3d | 
[V:4] F,G,A,_B,G,2F,4C2- | 
[V:1] z12 | 
[V:2] z12 | 
[V:3] efd2c2f3de2 | 
[V:4] CA,B,2C2A,2G,4 | 
[V:1] z12 | 
[V:2] z12 | 
[V:3] f4z2c2c2d2- | 
[V:4] F,8z2F,2 | 
[V:1] z12 | 
[V:2] z12 | 
[V:3] dcBABAd2c2f2- | 
[V:4] F,2G,3F,E,D,E,2D,2 | 
[V:1] z12 | 
[V:2] z12 | 
[V:3] f2e2d2g3fed | 
[V:4] A,2A,2B,2G,2C3B, | 
[V:1] z2A2A2B2G2c2- | 
[V:2] F4F2G3FED | 
[V:3] c4z2B2B2A2 | 
[V:4] A,G,F,2A,2G,2E,2A,2- | 
[V:1] cBAGA2G4E2 | 
[V:2] C2F3ED4^C2 | 
[V:3] c3BA2B2G4 | 
[V:4] A,2F,4G,2E,4 | 
[V:1] F8z2A2 | 
[V:2] D8z4 | 
[V:3] A2_B3AAGA4 | 
[V:4] D,12 | 
[V:1] B2d2d2B4AG | 
[V:2] D4D2D2D2D2- | 
[V:3] G2B2B2B2B2B2 | 
[V:4] G,4G,2G,2G,2G,2 | 
[V:1] F2D3EFGA2B2 | 
[V:2] D2F4EDF2ED | 
[V:3] A8d4 | 
[V:4] D,8D,4 | 
[V:1] c4z4d4 | 
[V:2] C4z4z4 | 
[V:3] e3ee2f4ed | 
[V:4] A,3B,C2D2_B,4 | 
[V:1] e3ee2f4ed | 
[V:2] A4A2D2F2G2 | 
[V:3] c4z4d4 | 
[V:4] A,3B,C2D2B,4 | 
[V:1] c4z4d4 | 
[V:2] A12 | 
[V:3] e4e2f4f2 | 
[V:4] A,2A,4F,4F,2 | 
[V:1] e4e2f4f2 | 
[V:2] z4z4A4 | 
[V:3] g2e4dcd4 | 
[V:4] E,3F,G,2A,2F,4 | 
[V:1] g2e4dcd4 | 
[V:2] G4G2A4F2 | 
[V:3] e4e2A4A2 | 
[V:4] E,4E,2F,4F,2 | 
[V:1] z2G2B3cd2e2- | 
[V:2] G2E3FGAB2E2- | 
[V:3] B2c2B8 | 
[V:4] E,8z2E,2- | 
[V:1] e2dcB4z2A2 | 
[V:2] E2A3^GG2A4- | 
[V:3] z2e2e4c2f2- | 
[V:4] E,2E,4E,2F,4- | 
[V:1] c2c2c3de2f2- | 
[V:2] A4z2A2G2A2- | 
[V:3] f2edc4z2d2 | 
[V:4] F,4F,4E,2D,2 | 
[V:1] f2edc2c2d3B | 
[V:2] A2G2E2E2F3D | 
[V:3] A2B2c4z4 | 
[V:4] F,2G,2A,2A,2[D,4D4] | 
[V:1] c12 | 
[V:2] E2A2A4A4- | 
[V:3] z2e2f3ee4- | 
[V:4] A,12- | 
[V:1] c12 ||  
[V:2] A12 ||  
[V:3] e12 ||  
[V:4] A,12 ||  
[V:1]  [K:C] [K:clef=treble][M:2/1]z8 | 
[V:2]  [K:C] [K:clef=treble][M:2/1]z8 | 
[V:3]  [K:C] [K:clef=treble-8][M:2/1]z8 | 
[V:4]  [K:C] [K:clef=bass][M:2/1]A,4A,3B, | 
[V:1] z8 | 
[V:2] z8 | 
[V:3] z4e4 | 
[V:4] C2D4^C2 | 
[V:1] z8 | 
[V:2] z8 | 
[V:3] f2f4ed | 
[V:4] D8 | 
[V:1] z8 | 
[V:2] z8 | 
[V:3] e4d3e | 
[V:4] z2A,2_B,2B,2- | 
[V:1] z8 | 
[V:2] z8 | 
[V:3] fga4g2- | 
[V:4] B,2A,G,F,2G,2 | 
[V:1] z8 | 
[V:2] z8 | 
[V:3] g2^f2g4 | 
[V:4] A,4G,4- | 
[V:1] z8 | 
[V:2] z8 | 
[V:3] z2e4e2- | 
[V:4] G,4z2A,2- | 
[V:1] z8 | 
[V:2] z8 | 
[V:3] e2f2d2e2- | 
[V:4] A,2A,2B,2G,2 | 
[V:1] z8 | 
[V:2] z8 | 
[V:3] e2dcB4 | 
[V:4] A,4G,4 | 
[V:1] z8 | 
[V:2] z8 | 
[V:3] A2c3de2 | 
[V:4] A,4z2A,2- | 
[V:1] z8 | 
[V:2] z8 | 
[V:3] f2d2e2f2- | 
[V:4] A,2B,2G,2A,2- | 
[V:1] z8 | 
[V:2] z8 | 
[V:3] fed4^c2 | 
[V:4] A,2G,F,E,2E,2 | 
[V:1] A8 | 
[V:2] F8 | 
[V:3] d8- | 
[V:4] D,8 | 
[V:1] A4F4- | 
[V:2] F4A4- | 
[V:3] d8 | 
[V:4] z2D,4D,2- | 
[V:1] F4A4 | 
[V:2] A4F4 | 
[V:3] z2d2c2d2 | 
[V:4] D,2F,4D,2 | 
[V:1] G6F2 | 
[V:2] E6D2 | 
[V:3] B2c2B4- | 
[V:4] E,2C,2G,4 | 
[V:1] F8- | 
[V:2] D8 | 
[V:3] B2A2A4- | 
[V:4] D,8- | 
[V:1] F8 | 
[V:2] z4D4 | 
[V:3] A8 | 
[V:4] D,8- | 
[V:1] z4F4 | 
[V:2] D2D3EFG | 
[V:3] z8 | 
[V:4] D,8 | 
[V:1] F2F3GAB | 
[V:2] A4A2F2- | 
[V:3] z8 | 
[V:4] z8 | 
[V:1] c3B/A/G2A2 | 
[V:2] F2EDE2F2 | 
[V:3] z8 | 
[V:4] z8 | 
[V:1] B4A4 | 
[V:2] G4F4 | 
[V:3] z8 | 
[V:4] z8 | 
[V:1] A2c4BA | 
[V:2] F2A4GF | 
[V:3] z8 | 
[V:4] z8 | 
[V:1] B2c2d4 | 
[V:2] G2A2_B4 | 
[V:3] z8 | 
[V:4] z4G,4 | 
[V:1] c8 | 
[V:2] A8 | 
[V:3] z8 | 
[V:4] A,2A,4F,2 | 
[V:1] z8 | 
[V:2] z8 | 
[V:3] g4a2a2- | 
[V:4] G,4F,G,A,B, | 
[V:1] z8 | 
[V:2] z8 | 
[V:3] a2f2gfed | 
[V:4] C2D2B,2C2- | 
[V:1] z8 | 
[V:2] z8 | 
[V:3] c2f4e2 | 
[V:4] C2B,A,G,4 | 
[V:1] c4c2c2 | 
[V:2] A4A2A2 | 
[V:3] f8 | 
[V:4] F,8 | 
[V:1] A2A2_B4 | 
[V:2] F2F2G4 | 
[V:3] z8 | 
[V:4] z8 | 
[V:1] A4z2c2- | 
[V:2] F8- | 
[V:3] z8 | 
[V:4] z8 | 
[V:1] c2BAc2d2 | 
[V:2] F8 | 
[V:3] z8 | 
[V:4] z8 | 
[V:1] e2f3edc | 
[V:2] z2F2F2F2 | 
[V:3] z8 | 
[V:4] z8 | 
[V:1] BAd4^c2 | 
[V:2] D4E4 | 
[V:3] z8 | 
[V:4] z8 | 
[V:1] d8 | 
[V:2] D8- | 
[V:3] z4a4 | 
[V:4] F4F2F2 | 
[V:1] z8 | 
[V:2] D8 | 
[V:3] a2a2a4 | 
[V:4] F4z2D2 | 
[V:1] z8 | 
[V:2] z8 | 
[V:3] z2f2f2f2 | 
[V:4] D2D2A,4 | 
[V:1] z8 | 
[V:2] z8 | 
[V:3] c4z2c2 | 
[V:4] z2A,2A,2C2- | 
[V:1] z8 | 
[V:2] z8 | 
[V:3] c2e4dc | 
[V:4] C2B,A,G,4 | 
[V:1] z8 | 
[V:2] z8 | 
[V:3] B2g2g2e2- | 
[V:4] G,4G,4 | 
[V:1] z8 | 
[V:2] z8 | 
[V:3] e2dcB4 | 
[V:4] G,4G,4 | 
[V:1] z8 | 
[V:2] z8 | 
[V:3] A4z2e2 | 
[V:4] z2A,2B,2G,2 | 
[V:1] z8 | 
[V:2] z8 | 
[V:3] f2d2edef | 
[V:4] A,G,A,B,C4 | 
[V:1] z8 | 
[V:2] z8 | 
[V:3] g2a4^g2 | 
[V:4] B,2A,2B,4 | 
[V:1] z8 | 
[V:2] E4E2E2 | 
[V:3] a8 | 
[V:4] A,8- | 
[V:1] z4e4 | 
[V:2] F3EC2A2- | 
[V:3] z4c4 | 
[V:4] A,8 | 
[V:1] e2e2f3e | 
[V:2] A2A4A2- | 
[V:3] c2c2d3c | 
[V:4] z8 | 
[V:1] c2e4e2 | 
[V:2] A2A4GF | 
[V:3] A4z2e2 | 
[V:4] z8 | 
[V:1] e2dcB2B2 | 
[V:2] E2A4^G2 | 
[V:3] c2A2e4 | 
[V:4] z8 | 
[V:1] c2c4A2- | 
[V:2] A3GF2E2- | 
[V:3] A8- | 
[V:4] z4z2A,2 | 
[V:1] AGF2E2FE | 
[V:2] EDD4^C2 | 
[V:3] A8- | 
[V:4] F,2D,2A,4 | 
[V:1] F4D4 | 
[V:2] D4A4 | 
[V:3] A8 | 
[V:4] D,8 | 
[V:1] z4d4 | 
[V:2] G2G2F4 | 
[V:3] z8 | 
[V:4] z8 | 
[V:1] c2c2B4 | 
[V:2] E4z2G2 | 
[V:3] z8 | 
[V:4] z8 | 
[V:1] A4z2c2 | 
[V:2] F2EDE2E2 | 
[V:3] z8 | 
[V:4] z8 | 
[V:1] B2AGA2c2 | 
[V:2] D3EFGA2- | 
[V:3] z8 | 
[V:4] z8 | 
[V:1] B2AGA4 | 
[V:2] A2G4^F2 | 
[V:3] z8 | 
[V:4] z8 | 
[V:1] G3ABcd2- | 
[V:2] G4z2F2 | 
[V:3] z8 | 
[V:4] z8 | 
[V:1] d2c3BB2 | 
[V:2] E2DCD2D2 | 
[V:3] z8 | 
[V:4] z8 | 
[V:1] c3BG2A2- | 
[V:2] C3DE2F2- | 
[V:3] z8 | 
[V:4] z8 | 
[V:1] AEG2F4 | 
[V:2] FGE4D2 | 
[V:3] z8 | 
[V:4] z4D,4 | 
[V:1] E4z4 | 
[V:2] E8 | 
[V:3] z4e4 | 
[V:4] A,4G,2A,2- | 
[V:1] z8 | 
[V:2] z8 | 
[V:3] e4e4 | 
[V:4] A,B,CDE2A,2- | 
[V:1] z8 | 
[V:2] z8 | 
[V:3] e4e4 | 
[V:4] A,2A,2G,2A,2- | 
[V:1] z8 | 
[V:2] z8 | 
[V:3] e4e2f2- | 
[V:4] A,2G,F,E,2A,2 | 
[V:1] z8 | 
[V:2] z8 | 
[V:3] f2e3dd2 | 
[V:4] G,2A,2F,4 | 
[V:1] z8 | 
[V:2] z8 | 
[V:3] e4z2e2 | 
[V:4] E,4A,4 | 
[V:1] z8 | 
[V:2] z8 | 
[V:3] e2e2f2ed | 
[V:4] A,4A,4 | 
[V:1] z8 | 
[V:2] z8 | 
[V:3] c2f2e2d2- | 
[V:4] A,4A,2B,2- | 
[V:1] z8 | 
[V:2] z8 | 
[V:3] dcBAB4 | 
[V:4] B,2A,4^G,2 | 
[V:1] c6c2 | 
[V:2] z2A4G2 | 
[V:3] A4z4 | 
[V:4] A,8- | 
[V:1] c2c2c4 | 
[V:2] F2E2F3E | 
[V:3] z2a4g2 | 
[V:4] A,8- | 
[V:1] A4c4 | 
[V:2] C4C4 | 
[V:3] f2e2f2ed | 
[V:4] A,8- | 
[V:1] c2c4BA | 
[V:2] A4A2A2- | 
[V:3] c2e2e2e2 | 
[V:4] A,8 | 
[V:1] c3de2A2 | 
[V:2] A2GFE2F2 | 
[V:3] f2edcdef | 
[V:4] z2A,2A,2A,2 | 
[V:1] e2f2g4 | 
[V:2] G2A2G4 | 
[V:3] e2d4^c2 | 
[V:4] G,2F,2E,4 | 
[V:1] f6ed | 
[V:2] z2A4A2 | 
[V:3] d8- | 
[V:4] D,8 | 
[V:1] d8 | 
[V:2] B2B4G2 | 
[V:3] d8- | 
[V:4] z2G,2G,4 | 
[V:1] z4A4 | 
[V:2] AGFEF4 | 
[V:3] d8 | 
[V:4] F,2G,2D,4 | 
[V:1] B2B4AG | 
[V:2] G4z2B2 | 
[V:3] z4d4 | 
[V:4] G,3A,B,CD2- | 
[V:1] ^F2G4F2 | 
[V:2] A2G2A4 | 
[V:3] d2d2c4 | 
[V:4] DCB,2A,4 | 
[V:1] G4B4 | 
[V:2] B6AG | 
[V:3] d4d4- | 
[V:4] G,4z2G,2 | 
[V:1] A2G2c4 | 
[V:2] ^F2G4F2 | 
[V:3] d4c4 | 
[V:4] D,2G,2A,4 | 
[V:1] B8 | 
[V:2] G8 | 
[V:3] d2B2d2e2- | 
[V:4] G,8 | 
[V:1] z4B4 | 
[V:2] z4G4 | 
[V:3] e2dcB4 | 
[V:4] z4G,4 | 
[V:1] c4c4 | 
[V:2] A4A4 | 
[V:3] A4f4 | 
[V:4] F,4F,4 | 
[V:1] c6BA | 
[V:2] A4A4- | 
[V:3] f4f4 | 
[V:4] F,8 | 
[V:1] A8 | 
[V:2] A2GFF4 | 
[V:3] f6ed | 
[V:4] F,8 | 
[V:1] z8 | 
[V:2] z2F2A2G2 | 
[V:3] c8 | 
[V:4] z2F,2F,2E,2 | 
[V:1] z2A2c2B2 | 
[V:2] F4z4 | 
[V:3] z2f2f2g2 | 
[V:4] F,4z4 | 
[V:1] A4z4 | 
[V:2] z2F2F2F2 | 
[V:3] a4z4 | 
[V:4] F,4F,2A,2 | 
[V:1] z4A4 | 
[V:2] F2E2F3E | 
[V:3] z4z2f2 | 
[V:4] A,2G,2F,4- | 
[V:1] A2A2c2B2 | 
[V:2] C4z4 | 
[V:3] f2f2f2g2 | 
[V:4] F,4z4 | 
[V:1] A2c3def | 
[V:2] z8 | 
[V:3] a4a4 | 
[V:4] F,6E,D, | 
[V:1] g2f4e2 | 
[V:2] z4c2c2- | 
[V:3] g2a2g4 | 
[V:4] E,2F,2C4 | 
[V:1] f8 | 
[V:2] c2B2A2G2 | 
[V:3] f8 | 
[V:4] F,4D2D2- | 
[V:1] z4f4 | 
[V:2] F3ED4 | 
[V:3] z4f4 | 
[V:4] D2C2B,2A,2 | 
[V:1] e2e4d2 | 
[V:2] z2G4F2 | 
[V:3] g4g4 | 
[V:4] G,3F,E,4 | 
[V:1] c3BA4- | 
[V:2] E3DC2B,2 | 
[V:3] a8 | 
[V:4] A,2A,4G,2 | 
[V:1] A4d2d2- | 
[V:2] A,8 | 
[V:3] z4f4 | 
[V:4] F,3E,D,4- | 
[V:1] d2c2B3A | 
[V:2] D4D4 | 
[V:3] f4f4 | 
[V:4] D,4D,4 | 
[V:1] G2F2E4 | 
[V:2] B,8 | 
[V:3] g8 | 
[V:4] E,8- | 
[V:1] e2e4d2 | 
[V:2] z2G2G3F | 
[V:3] e8- | 
[V:4] E,8- | 
[V:1] c2B2c2BA | 
[V:2] E2D2C2G,2 | 
[V:3] e8 | 
[V:4] E,8- | 
[V:1] G2A4^G2 | 
[V:2] E2DCB,4 | 
[V:3] z8 | 
[V:4] E,8 | 
[V:1] A8- | 
[V:2] A,8 | 
[V:3] a2a4g2 | 
[V:4] z2A,3B,C2 | 
[V:1] A8 | 
[V:2] z8 | 
[V:3] f2e2f2ed | 
[V:4] D2C2D2CB, | 
[V:1] z8 | 
[V:2] z4A4 | 
[V:3] c3de2f2 | 
[V:4] A,6F,2 | 
[V:1] z8 | 
[V:2] G4G4 | 
[V:3] edd4^c2 | 
[V:4] G,F,E,D,E,4 | 
[V:1] z4A4 | 
[V:2] F4z2F2 | 
[V:3] d8- | 
[V:4] D,4z2D,2 | 
[V:1] G4G4 | 
[V:2] _B2B4AG | 
[V:3] d8- | 
[V:4] G,4G,4 | 
[V:1] F2A3GF2 | 
[V:2] A2F3GAF | 
[V:3] d8 | 
[V:4] D,4z2D,2 | 
[V:1] E2D2FGAB | 
[V:2] G2F4ED | 
[V:3] z8 | 
[V:4] C,2D,3E,F,G, | 
[V:1] c2A3GG2 | 
[V:2] C2D2B,4 | 
[V:3] z4d4- | 
[V:4] A,2F,2G,4 | 
[V:1] F2A2G2_B2- | 
[V:2] A,4_B,4 | 
[V:3] d4d4 | 
[V:4] D,4G,4- | 
[V:1] B2A3GG2 | 
[V:2] G,2A,2_B,4 | 
[V:3] d8 | 
[V:4] G,2F,2G,4 | 
[V:1] A4z2A2 | 
[V:2] A,8 | 
[V:3] f4z2f2 | 
[V:4] D,4z2D,2 | 
[V:1] c4d4 | 
[V:2] z8 | 
[V:3] f4f4 | 
[V:4] A,4_B,4 | 
[V:1] e4e4 | 
[V:2] z4A4 | 
[V:3] e4e4 | 
[V:4] C4C4 | 
[V:1] f2f4ed | 
[V:2] A2A4GF | 
[V:3] d8 | 
[V:4] D2D,3E,F,G, | 
[V:1] c2d4B2 | 
[V:2] E2D2G4 | 
[V:3] z4d4 | 
[V:4] A,2B,2G,2B,2 | 
[V:1] c2A3Bc2 | 
[V:2] A4F4 | 
[V:3] e2f3ec2 | 
[V:4] A,2F,2A,4 | 
[V:1] B2G3ABG | 
[V:2] G4E4 | 
[V:3] d2e3dB2 | 
[V:4] G,2E,2G,4 | 
[V:1] A2F3GA2 | 
[V:2] F4D4 | 
[V:3] c2d3cA2 | 
[V:4] F,2D,2F,4 | 
[V:1] G2E4e2- | 
[V:2] E3FG2G2- | 
[V:3] B2c4BA | 
[V:4] E,8 | 
[V:1] e2d2c2B2- | 
[V:2] G2G2E2G2- | 
[V:3] B4z2B2- | 
[V:4] G,4A,2E,2 | 
[V:1] BAd4c2 | 
[V:2] G2A2G2E2 | 
[V:3] B2A2B2c2 | 
[V:4] G,2F,2G,2A,2 | 
[V:1] d4e4 | 
[V:2] F2D2G4 | 
[V:3] A2d4^c2 | 
[V:4] F,2G,2E,4 | 
[V:1] f2d2e2g2- | 
[V:2] F2A3GE2 | 
[V:3] d4c4 | 
[V:4] D,2F,2E,4 | 
[V:1] gff4ed | 
[V:2] F2D2A2A2- | 
[V:3] d3cdef2- | 
[V:4] D,4F,3G, | 
[V:1] c2d3^cc2 | 
[V:2] A2G2A4 | 
[V:3] f2ede4 | 
[V:4] A,2_B,2A,4 | 
[V:1] d8 | 
[V:2] A2F3ED2- | 
[V:3] d8- | 
[V:4] D,8 | 
[V:1] d8- | 
[V:2] D2CB,A,4 | 
[V:3] d8- | 
[V:4] D,8- | 
[V:1] d8 |]  
[V:2] A,8 |]  
[V:3] d8 |]  
[V:4] D,8 |]  



